Adwaita++/actions/symbolic/document-open-symbolic.svg

<svg height="16" width="16" xmlns="http://www.w3.org/2000/svg">
  <g fill="#474747">
    <path d="m.985 2.986a1 1 0 0 0 -.985 1.014v9s-.014.459.23.947c.246.489.938 1.053 1.77 1.053h1.832a1 1 0 0 0 .326 0h9.842s.459.014.947-.23c.489-.245 1.053-.937 1.053-1.77v-3a1 1 0 0 0 -1-1h-11a1 1 0 0 0 -1 1v3h-1v-9a1 1 0 0 0 -1.015-1.014zm4.015 8.014h9v2h-9z" fill-rule="evenodd"/>
    <path d="m4 11h11v3h-11zm11-1h1v1h-1zm-12-1h1v1h-1zm-2-6h2v5h-2z"/>
    <path d="m5 0a1 1 0 0 0 -1 1v7h2v-6h4.086l2.914 2.914v3.086h2v-3.5a1 1 0 0 0 -.293-.707l-3.5-3.5a1 1 0 0 0 -.707-.293z" fill-rule="evenodd"/>
    <path d="m10 1v4h4z" fill-rule="evenodd"/>
    <path d="m15 9h1v1h-1z"/>
  </g>
</svg>

<svg xmlns="http://www.w3.org/2000/svg" width="16" height="16">
    <g fill="#474747">
        <path d="M.985 2.986A1 1 0 0 0 0 4v9s-.014.459.23.947C.476 14.436 1.168 15 2 15h1.832a1 1 0 0 0 .326 0H14s.459.014.947-.23C15.436 14.525 16 13.833 16 13v-3a1 1 0 0 0-1-1H4a1 1 0 0 0-1 1v3H2V4A1 1 0 0 0 .985 2.986zM5 11h9v2H5z" style="line-height:normal;font-variant-ligatures:normal;font-variant-position:normal;font-variant-caps:normal;font-variant-numeric:normal;font-variant-alternates:normal;font-feature-settings:normal;text-indent:0;text-align:start;text-decoration-line:none;text-decoration-style:solid;text-decoration-color:#000;text-transform:none;text-orientation:mixed;shape-padding:0;isolation:auto;mix-blend-mode:normal" color="#000" font-weight="400" font-family="sans-serif" white-space="normal" overflow="visible" fill-rule="evenodd"/>
        <path d="M4 11h11v3H4zM15 10h1v1h-1zM3 9h1v1H3zM1 3h2v5H1z"/>
        <path d="M5 0a1 1 0 0 0-1 1v7h2V2h4.086L13 4.914V8h2V4.5a1 1 0 0 0-.293-.707l-3.5-3.5A1 1 0 0 0 10.5 0z" style="line-height:normal;font-variant-ligatures:normal;font-variant-position:normal;font-variant-caps:normal;font-variant-numeric:normal;font-variant-alternates:normal;font-feature-settings:normal;text-indent:0;text-align:start;text-decoration-line:none;text-decoration-style:solid;text-decoration-color:#000;text-transform:none;text-orientation:mixed;shape-padding:0;isolation:auto;mix-blend-mode:normal" color="#000" font-weight="400" font-family="sans-serif" white-space="normal" overflow="visible" fill-rule="evenodd"/>
        <path d="M10 1v4h4z" fill-rule="evenodd"/>
        <path d="M15 9h1v1h-1z"/>
    </g>
</svg>
